images/team/rocketchat.svg

<svg height="32" viewBox="0 0 32 32" width="32" xmlns="http://www.w3.org/2000/svg"><g fill="none" fill-rule="evenodd"><rect fill="#eb2626" height="32" rx="2" width="32"/><g transform="translate(7.001733 8.001733)"><path d="m17.976327 7.63034524c0-.90212211-.2700495-1.76694719-.8027918-2.57116458-.4783734-.72173355-1.1485628-1.36062464-1.9917274-1.89910063-1.6281923-1.03929632-3.768133-1.61184172-6.02524464-1.61184172-.75398547 0-1.49720484.063656-2.21799485.18989213-.44715178-.41833649-.97074283-.79471381-1.52465838-1.09219356-2.95959931-1.4334256-5.41390993-.03371078-5.41390993-.03371078s2.28187368 1.87327961 1.91080229 3.51524586c-1.02080516 1.01204079-1.57418241 2.23244292-1.57418241 3.50287328 0 .00394488.00017944.00806907.00017944.01219326 0 .00394488-.00017944.00788976-.00017944.01219327 0 1.27043036.55319781 2.49083253 1.57418241 3.50269393.37107139 1.6421456-1.91080229 3.5154252-1.91080229 3.5154252s2.45431062 1.3995355 5.41390993-.0337108c.55391555-.2974797 1.07732716-.6740364 1.52465838-1.0921935.72096944.1260568 1.46400938.1897128 2.21799485.1897128 2.25729114 0 4.39705234-.5721868 6.02524464-1.6114831.8431646-.538476 1.513354-1.1771878 1.9917274-1.89928.5327423-.80403803.8027918-1.66922173.8027918-2.57098522 0-.00412419-.0001794-.00806907-.0001794-.01219326s.0001794-.0084277.0001794-.01237258z" fill="#fff" fill-rule="nonzero"/><path d="m15.9724847 7.67268562c0 2.40148098-3.0616165 4.34858848-6.83805328 4.34858848-.84095556 0-1.64624306-.0968469-2.39024635-.2732697-.75616285.9055188-2.41959143 2.1646903-4.03551664 1.7577718.52561749-.5620351 1.30431608-1.5117806 1.13764896-3.0761813-.96854993-.75024091-1.54993929-1.71047821-1.54993929-2.75690928-.00016213-2.40180384 3.06145436-4.34858853 6.83805332-4.34858853 3.77643678 0 6.83805328 1.9469461 6.83805328 4.34858853z" fill="#db2323"/></g><g fill="#fff" fill-rule="nonzero"><circle cx="15.989896" cy="15.783186" r="1"/><circle cx="19.419879" cy="15.783186" r="1"/><circle cx="12.676928" cy="15.783186" r="1"/></g></g></svg>

<?xml version="1.0" encoding="UTF-8"?>
<svg width="32px" height="32px" viewBox="0 0 32 32" version="1.1" xmlns="http://www.w3.org/2000/svg" xmlns:xlink="http://www.w3.org/1999/xlink">
    <g stroke="none" stroke-width="1" fill="none" fill-rule="evenodd">
        <rect id="Rectangle" fill="#EB2626" x="0" y="0" width="32" height="32" rx="2"></rect>
        <g id="Logo" transform="translate(7.000000, 8.000000)">
            <g transform="translate(0.001733, 0.001733)">
                <g>
                    <path d="M17.976327,7.63034524 C17.976327,6.72822313 17.7062775,5.86339805 17.1735352,5.05918066 C16.6951618,4.33744711 16.0249724,3.69855602 15.1818078,3.16008003 C13.5536155,2.12078371 11.4136748,1.54823831 9.15656316,1.54823831 C8.40257769,1.54823831 7.65935832,1.61189431 6.93856831,1.73813044 C6.49141653,1.31979395 5.96782548,0.943416625 5.41390993,0.645936882 C2.45431062,-0.787488715 2.54992335e-15,0.612226097 2.54992335e-15,0.612226097 C2.54992335e-15,0.612226097 2.28187368,2.48550571 1.91080229,4.12747196 C0.889997125,5.13951275 0.33661988,6.35991488 0.33661988,7.63034524 C0.33661988,7.63429012 0.336799315,7.63841431 0.336799315,7.6425385 C0.336799315,7.64648338 0.33661988,7.65042826 0.33661988,7.65473177 C0.33661988,8.92516213 0.88981769,10.1455643 1.91080229,11.1574257 C2.28187368,12.7995713 0,14.6728509 0,14.6728509 C0,14.6728509 2.45431062,16.0723864 5.41390993,14.6391401 C5.96782548,14.3416604 6.49123709,13.9651037 6.93856831,13.5469466 C7.65953775,13.6730034 8.40257769,13.7366594 9.15656316,13.7366594 C11.4138543,13.7366594 13.5536155,13.1644726 15.1818078,12.1251763 C16.0249724,11.5867003 16.6951618,10.9479885 17.1735352,10.2258963 C17.7062775,9.42185827 17.976327,8.55667457 17.976327,7.65491108 C17.976327,7.65078689 17.9761476,7.64684201 17.9761476,7.64271782 C17.9761476,7.63859363 17.976327,7.63429012 17.976327,7.63034524 Z" id="Combined-Shape" fill="#FFFFFF" fill-rule="nonzero"></path>
                    <path d="M15.9724847,7.67268562 C15.9724847,10.0741666 12.9108682,12.0212741 9.13443142,12.0212741 C8.29347586,12.0212741 7.48818836,11.9244272 6.74418507,11.7480044 C5.98802222,12.6535232 4.32459364,13.9126947 2.70866843,13.5057762 C3.23428592,12.9437411 4.01298451,11.9939956 3.84631739,10.4295949 C2.87776746,9.67935399 2.2963781,8.71911669 2.2963781,7.67268562 C2.29621597,5.27088178 5.35783246,3.32409709 9.13443142,3.32409709 C12.9108682,3.32409709 15.9724847,5.27104319 15.9724847,7.67268562 Z" id="Bubble" fill="#DB2323"></path>
                </g>
                <g transform="translate(4.695200, 6.801458)" fill="#FFFFFF" fill-rule="nonzero">
                    <circle id="Oval" cx="4.29296336" cy="0.979995044" r="1"></circle>
                    <circle id="Oval" cx="7.72294602" cy="0.979995044" r="1"></circle>
                    <circle id="Oval" cx="0.979995044" cy="0.979995044" r="1"></circle>
                </g>
            </g>
        </g>
    </g>
</svg>
